resources/icons/20px/align-left.svg

<svg xmlns="http://www.w3.org/2000/svg" viewBox="0 0 20 20">
  <path d="M1 7h10c.55 0 1-.45 1-1s-.45-1-1-1H1c-.55 0-1 .45-1 1s.45 1 1 1m0-4h18c.55 0 1-.45 1-1s-.45-1-1-1H1c-.55 0-1 .45-1 1s.45 1 1 1m14 14H1c-.55 0-1 .45-1 1s.45 1 1 1h14c.55 0 1-.45 1-1s-.45-1-1-1m4-8H1c-.55 0-1 .45-1 1s.45 1 1 1h18c.55 0 1-.45 1-1s-.45-1-1-1M1 15h6c.55 0 1-.45 1-1s-.45-1-1-1H1c-.55 0-1 .45-1 1s.45 1 1 1"/>
</svg>

<?xml version="1.0" encoding="utf-8"?>
<!-- Generator: Adobe Illustrator 17.1.0, SVG Export Plug-In . SVG Version: 6.00 Build 0)  -->
<!DOCTYPE svg PUBLIC "-//W3C//DTD SVG 1.1//EN" "http://www.w3.org/Graphics/SVG/1.1/DTD/svg11.dtd">
<svg version="1.1" id="Layer_1" xmlns="http://www.w3.org/2000/svg" xmlns:xlink="http://www.w3.org/1999/xlink" x="0px" y="0px"
	 viewBox="0 0 20 20" enable-background="new 0 0 20 20" xml:space="preserve">
<g id="Rounded_Rectangle_7">
	<g>
		<path fill-rule="evenodd" clip-rule="evenodd" d="M1,7h10c0.55,0,1-0.45,1-1c0-0.55-0.45-1-1-1H1C0.45,5,0,5.45,0,6
			C0,6.55,0.45,7,1,7z M1,3h18c0.55,0,1-0.45,1-1c0-0.55-0.45-1-1-1H1C0.45,1,0,1.45,0,2C0,2.55,0.45,3,1,3z M15,17H1
			c-0.55,0-1,0.45-1,1c0,0.55,0.45,1,1,1h14c0.55,0,1-0.45,1-1C16,17.45,15.55,17,15,17z M19,9H1c-0.55,0-1,0.45-1,1
			c0,0.55,0.45,1,1,1h18c0.55,0,1-0.45,1-1C20,9.45,19.55,9,19,9z M1,15h6c0.55,0,1-0.45,1-1c0-0.55-0.45-1-1-1H1
			c-0.55,0-1,0.45-1,1C0,14.55,0.45,15,1,15z"/>
	</g>
</g>
</svg>
